!!!COM: Palestrina, Giovanni Perluigi da
!!!OPR: Missa Veni Sancte Spiritus
!!!OTL: Gloria
**kern	**kern	**kern	**kern	**kern
*Ibass	*Itenor	*Itenor	*Icalto	*Icant
!Bassus	!Tenor 2	!Tenor 1	!Altus	!Cantus
*clefF4	*clefGv2	*clefGv2	*clefG2	*clefG2
*k[b-]	*k[b-]	*k[b-]	*k[b-]	*k[b-]
*G:dor	*G:dor	*G:dor	*G:dor	*G:dor
*M4/2	*M4/2	*M4/2	*M4/2	*M4/2
=1	=1	=1	=1	=1
0G	0B	0d	1r	0r
.	.	.	[1g	.
=2	=2	=2	=2	=2
1C	1c	1e	1g]	0r
2F	2c	2f	1a	.
2F	2c	2f	.	.
=3	=3	=3	=3	=3
2BB-	1.d	1.f	2b-	0r
4BB-	.	.	2b-	.
4C	.	.	.	.
4D	.	.	2b-	.
4E	.	.	.	.
2F	2c	2f	[2a	.
=4	=4	=4	=4	=4
2G	2B	2d	2a]	1r
2C	2c	2e-	1g	.
1D	1A	[1d	.	[1dd
.	.	.	2f#	.
=5	=5	=5	=5	=5
1G	1B	1d]	1g	1dd]
1C	[1c	1g	1e	1ee
=6	=6	=6	=6	=6
2.F	1c]	2f	1a	1ff
.	.	2.f	.	.
4E	.	.	.	.
2D	2d	.	[1a	2ff
.	.	8e	.	.
.	.	8d	.	.
2A	2e	2c#	.	[2ee
=7	=7	=7	=7	=7
1D	1f	2d	2a]	4ee]
.	.	.	.	4dd
.	.	2.a	2a	1dd
1A	1e	.	1a	.
.	.	4g	.	.
.	.	2e	.	2cc#
=8	=8	=8	=8	=8
1D	1d	1f#	1a	1dd
1r	1G	2.g	2r	1b
.	.	.	2g	.
.	.	4f	.	.
=9	=9	=9	=9	=9
0r	1c	4e	4g	1cc
.	.	4d	4f	.
.	.	2e	4g	.
.	.	.	4a	.
.	2.B-	2f	1b-	2.dd
.	.	2g	.	.
.	4c	.	.	4ee-
=10	=10	=10	=10	=10
0r	2d	2f	2a	2dd
.	2e-	2g	1g	2cc
.	1d	1a	.	1dd
.	.	.	4f#	.
.	.	.	4e	.
=11	=11	=11	=11	=11
1D	1A	2r	2f#	0dd
.	.	1d	2f#	.
1G	1B-	.	1g	.
.	.	2d	.	.
=12	=12	=12	=12	=12
2.F	2c	1f	2.a	0r
.	2d	.	.	.
4G	.	.	4b-	.
2A	2c	2e	2a	.
2B-	4d	[2d	2g	.
.	4e	.	.	.
=13	=13	=13	=13	=13
1A	4f	2d]	1a	0r
.	8e	.	.	.
.	8d	.	.	.
.	2e	2c#	.	.
2.B-	[1d	2d	2f	.
.	.	[2B-	2f	.
4A	.	.	.	.
=14	=14	=14	=14	=14
1G	1d]	4B-]	1g	1b-
.	.	4c	.	.
.	.	4d	.	.
.	.	4B-	.	.
1r	2r	1f	2a	2cc
.	[2B-	.	2b-	[2dd
=15	=15	=15	=15	=15
0r	2B-]	1r	2.g	2dd]
.	2c	.	.	2.ee-
.	.	.	4a	.
.	1d	1f	2b-	.
.	.	.	.	4dd
.	.	.	[2a	[2dd
=16	=16	=16	=16	=16
0r	1e-	1g	4a]	2dd]
.	.	.	4g	.
.	.	.	1g	2cc
.	1d	2a	.	1dd
.	.	2a	2f#	.
=17	=17	=17	=17	=17
1G	2r	2d	2r	1b-
.	1G	2d	2g	.
2E-	.	1e-	2g	2b-
2C	[2c	.	2g	2cc
=18	=18	=18	=18	=18
1G	2c]	1d	0g	1dd
.	2B	.	.	.
1C	2c	2.c	.	1ee-
.	2G	.	.	.
.	.	4B-	.	.
=19	=19	=19	=19	=19
0D	0d	2A	2f#	0dd
.	.	2G	2.g	.
.	.	1A	.	.
.	.	.	8f#	.
.	.	.	8e	.
.	.	.	2f#	.
=20	=20	=20	=20	=20
2r	2r	2G	2g	2r
1G	1d	1B-	1g	1dd
2D	2d	2A	2f#	2dd
=21	=21	=21	=21	=21
1D	2d	1A	1a	1ff#
.	2d	.	.	.
[1G	2B-	4G	[1b-	[1gg
.	.	4A	.	.
.	4G	4B-	.	.
.	4A	4c	.	.
=22	=22	=22	=22	=22
2G]	4B-	4d	2b-]	2gg]
.	4c	4e	.	.
2D	2.d	4f	2a	2ff
.	.	4d	.	.
1A	.	2e	1a	1ee
.	8c	.	.	.
.	8B	.	.	.
.	2c#	2e	.	.
=23	=23	=23	=23	=23
1D	1A	1d	1a	1ff#
1G	1B-	1d	2g	[1gg
.	.	.	[2b-	.
=24	=24	=24	=24	=24
2r	2.G	0d	2b-]	1gg]
1B-	.	.	2g	.
.	4G	.	.	.
.	4G	.	1b-	1r
.	4A	.	.	.
2G	4B-	.	.	.
.	4c	.	.	.
=25	=25	=25	=25	=25
0B-	4d	1r	2.f	1.ff
.	4c	.	.	.
.	4d	.	.	.
.	4e-	.	4e-	.
.	2f	2r	4d	.
.	.	.	4e-	.
.	2B-	[2f	4f	2dd
.	.	.	4g	.
=26	=26	=26	=26	=26
2F	2c	2f]	2a	0ff
2.BB-	2B-	2d	1b-	.
.	1d	[1f	.	.
4BB-	.	.	.	.
2D	.	.	2a	.
=27	=27	=27	=27	=27
1F	1A	1f]	0a	1cc
1F	2A	2c	.	[1cc
.	[2f	2F	.	.
=28	=28	=28	=28	=28
0r	2f]	2A	2r	2cc]
.	2d	4B-	2.f	2b-
.	.	4c	.	.
.	1f	4d	.	1a
.	.	4e	4g	.
.	.	[2f	4a	.
.	.	.	4b-	.
=29	=29	=29	=29	=29
1r	1c	2f]	2.cc	1g
.	.	2e	.	.
.	.	.	4b-	.
[1F	[1c	2f	2.a	4f
.	.	.	.	4g
.	.	2c	.	4a
.	.	.	4g	4b-
=30	=30	=30	=30	=30
2F]	2c]	2A	2.f	4cc
.	.	.	.	4a
2D	2B-	2F	.	2dd
.	.	.	4g	.
1F	1A	4F	2a	[1cc
.	.	4G	.	.
.	.	4A	[2f	.
.	.	4B-	.	.
=31	=31	=31	=31	=31
0C	0G	0c	2f]	0cc]
.	.	.	4e	.
.	.	.	4d	.
.	.	.	1e	.
=32	=32	=32	=32	=32
1F	2F	1A	2f	2r
.	2.f	.	2.a	2.cc
1r	.	1r	.	.
.	4f	.	4a	4cc
.	2d	.	2f	2b
=33	=33	=33	=33	=33
0r	2e	0r	2g	1cc
.	2f	.	2a	.
.	4B-	.	2b-	1dd
.	4c	.	.	.
.	4d	.	4a	.
.	4e	.	4g	.
=34	=34	=34	=34	=34
0r	4f	0r	2a	1.cc
.	4g	.	.	.
.	2a	.	2f	.
.	2f	.	2a	.
.	2g	.	[2g	2b-
=35	=35	=35	=35	=35
1r	2.d	1r	2g]	1a
.	.	.	2f#	.
.	4c	.	.	.
2r	2B	2r	1g	[1g
[2c	2c	[2e	.	.
=36	=36	=36	=36	=36
2c]	1G	2e]	2r	1g]
2B	.	2d	2g	.
1c	1r	1e	2g	1r
.	.	.	2a	.
=37	=37	=37	=37	=37
1d	1r	1.f	2b-	0r
.	.	.	4a	.
.	.	.	4g	.
1c	2r	.	2a	.
.	[2g	2e	2g	.
=38	=38	=38	=38	=38
2B-	2g]	2d	1r	2r
2A	2f#	2c	.	1cc
1G	1g	1d	2r	.
.	.	.	2g	2b
=39	=39	=39	=39	=39
0r	1a	0r	4f	1cc
.	.	.	4g	.
.	.	.	4a	.
.	.	.	4f	.
.	2g	.	2b-	1dd
.	[2f	.	4a	.
.	.	.	4g	.
=40	=40	=40	=40	=40
0r	2f]	1r	2a	1cc
.	2e-	.	1g	.
.	1d	2r	.	2b-
.	.	[2d	2f#	2a
=41	=41	=41	=41	=41
2r	1G	4d]	0g	2.b-
.	.	4d	.	.
2.G	.	2e-	.	.
.	.	.	.	8a
.	.	.	.	8g
.	2r	1d	.	2.b-
4G	.	.	.	.
2G	[2d	.	.	.
.	.	.	.	4cc
=42	=42	=42	=42	=42
1B-	4d]	1G	2r	1dd
.	4d	.	.	.
.	2d	.	2.g	.
1c	1e	2r	.	1r
.	.	.	4g	.
.	.	2c	2g	.
=43	=43	=43	=43	=43
2.G	1g	2d	1b-	0r
.	.	1e	.	.
4G	.	.	.	.
2A	2.c	.	2cc	.
2A	.	2f#	[2cc	.
.	4c	.	.	.
=44	=44	=44	=44	=44
1.G	2d	1g	2cc]	2r
.	2d	.	2b-	2.dd
.	1G	[1d	2b-	.
.	.	.	.	4dd
4F	.	.	4a	2dd
4E	.	.	4g	.
=45	=45	=45	=45	=45
1D	2r	2d]	2.a	1ff#
.	2d	2d	.	.
.	.	.	8g	.
.	.	.	8a	.
1G	2d	2B-	2b-	1gg
.	[2d	2G	2b-	.
=46	=46	=46	=46	=46
0r	2d]	1A	0a	2ff
.	2c#	.	.	2ee
.	1d	2r	.	2ff#
.	.	[2d	.	2ff#
=47	=47	=47	=47	=47
2.G	2r	4d]	0b-	1gg
.	.	4c	.	.
.	2.d	4B-	.	.
4A	.	4c	.	.
[1B-	.	4d	.	[1ff
.	4c	4e-	.	.
.	4B-	[2f	.	.
.	4c	.	.	.
=48	=48	=48	=48	=48
1B-]	4d	2f]	1f	1ff]
.	4e-	.	.	.
.	1f	2d	.	.
1B-	.	[1f	[1b-	1dd
.	2d	.	.	.
=49	=49	=49	=49	=49
0F	0c	0f]	2b-]	0ff
.	.	.	4a	.
.	.	.	4g	.
.	.	.	1a	.
=50	=50	=50	=50	=50
1BB-	0B-	1f	1b-	0dd
2r	.	2r	2.f	.
[2B-	.	[2d	.	.
.	.	.	4f	.
=51	=51	=51	=51	=51
4B-]	1r	4d]	2g	0r
4B-	.	4d	.	.
2c	.	2e	2.a	.
2.d	2r	2f	.	.
.	.	.	4g	.
.	[2B-	2d	4f	.
4c	.	.	4e-	.
=52	=52	=52	=52	=52
2B-	4B-]	2r	2d	0r
.	4B-	.	.	.
2A	2c	2.f	2c	.
2B-	2d	.	4B-	.
.	.	4f	4c	.
2G	2B-	2g	4d	.
.	.	.	4e	.
=53	=53	=53	=53	=53
1F	2c	2.a	0f	1r
.	2.d	.	.	.
.	.	4g	.	.
1BB-	.	2f	.	2r
.	4c	.	.	.
.	4B-	2d	.	[2b-
.	4A	.	.	.
=54	=54	=54	=54	=54
0r	2G	2e-	1g	4b-]
.	.	.	.	4b-
.	1g	2e-	.	2cc
.	.	1d	1a	1dd
.	2f	.	.	.
=55	=55	=55	=55	=55
1r	2.d	2G	2g	2b-
.	.	2.B-	2.f	1dd
.	4e	.	.	.
2r	1f	.	.	.
.	.	4B-	4g	.
[2F	.	2c	[2a	4cc
.	.	.	.	4b-
=56	=56	=56	=56	=56
4F]	1r	1d	2a]	2a
4F	.	.	.	.
2G	.	.	4g	2b-
.	.	.	4f	.
2.A	2r	[1c	2e	[1cc
.	[2F	.	[2a	.
4G	.	.	.	.
=57	=57	=57	=57	=57
2F	4F]	0c]	2a]	0cc]
.	4F	.	.	.
2E	2G	.	2g	.
1F	4A	.	1f	.
.	4B-	.	.	.
.	4c	.	.	.
.	4A	.	.	.
=58	=58	=58	=58	=58
1BB-	2.B-	2r	2.f	2.dd
.	.	2.B-	.	.
.	4A	.	4f	4cc
2r	2G	.	2g	2b-
.	.	4B-	.	.
2F	2F	2c	[2a	4a
.	.	.	.	4g
=59	=59	=59	=59	=59
2D	1A	2.d	4a]	1f
.	.	.	4g	.
2D	.	.	4f	.
.	.	4c	4e-	.
2.G	2B-	4B-	4d	2r
.	.	4A	4c	.
.	[2B-	2G	4B-	[2b-
4F	.	.	4A	.
=60	=60	=60	=60	=60
1E-	2B-]	1g	2G	4b-]
.	.	.	.	4b-
.	4A	.	1g	2cc
.	4G	.	.	.
[1D	1A	2r	.	2.dd
.	.	[2d	4f#	.
.	.	.	4e	8cc
.	.	.	.	8b-
=61	=61	=61	=61	=61
0D]	0d	4d]	2f#	2a
.	.	4c	.	.
.	.	2B-	1g	2g
.	.	1A	.	1a
.	.	.	2f#	.
=62	=62	=62	=62	=62
0G	0d	0G	0g	0b
=63	=63	=63	=63	=63
0r	1g	0r	0r	0r
.	1g	.	.	.
=64	=64	=64	=64	=64
1r	1.f	0r	0r	0r
1c	.	.	.	.
.	4e	.	.	.
.	4d	.	.	.
=65	=65	=65	=65	=65
1c	1e	1g	0r	0r
[1B-	2d	1g	.	.
.	[2d	.	.	.
=66	=66	=66	=66	=66
2B-]	2d]	1.f	0r	0r
4A	4c	.	.	.
4G	4B-	.	.	.
2A	2c	.	.	.
2B	2G	4e	.	.
.	.	4d	.	.
=67	=67	=67	=67	=67
2.c	4g	1.e	1cc	0r
.	4f	.	.	.
.	4e	.	.	.
4B-	4d	.	.	.
1A	1c	.	1cc	.
.	.	2f#	.	.
=68	=68	=68	=68	=68
1G	1d	2.g	1.b-	1gg
.	.	4f	.	.
1r	1r	1e-	.	1gg
.	.	.	4a	.
.	.	.	4g	.
=69	=69	=69	=69	=69
0r	1r	1d	2a	1.ff
.	.	.	2b	.
.	2r	1c	2.cc	.
.	2c	.	.	4ee
.	.	.	4b-	4dd
=70	=70	=70	=70	=70
0r	2c	0r	1a	2ee
.	2d	.	.	2ff#
.	2B	.	1g	2.gg
.	[2c	.	.	.
.	.	.	.	4ff
=71	=71	=71	=71	=71
1r	4c]	1r	1cc	1ee-
.	4d	.	.	.
.	4e-	.	.	.
.	4f	.	.	.
1G	2g	1d	1b-	1dd
.	[2g	.	.	.
=72	=72	=72	=72	=72
1E-	2g]	1e-	1.b-	0r
.	2g	.	.	.
1F	[1f	2d	.	.
.	.	[2c	4a	.
.	.	.	4g	.
=73	=73	=73	=73	=73
1D	2f]	4c]	2a	1dd
.	.	4B-	.	.
.	2d	1B-	2b-	.
1C	2g	.	1cc	1ee-
.	2c	2A	.	.
=74	=74	=74	=74	=74
1BB-	2r	2B-	1f	1dd
.	2d	1B-	.	.
1E-	1e-	.	1g	2b-
.	.	2G	.	[2cc
=75	=75	=75	=75	=75
0F	2d	2A	0f	2cc]
.	2d	2B-	.	1b-
.	1c	1c	.	.
.	.	.	.	2a
=76	=76	=76	=76	=76
2r	1B-	0d	2r	1b-
2G	.	.	2b-	.
1G	2r	.	1b-	1r
.	2d	.	.	.
=77	=77	=77	=77	=77
1.F	1d	0r	1.a	0r
.	[1c	.	.	.
2E	.	.	2g	.
=78	=78	=78	=78	=78
2F	2c]	2r	2a	2r
2G	2B	2G	2d	2gg
1E	2c#	1G	2g	1gg
.	2c#	.	2g	.
=79	=79	=79	=79	=79
1D	1d	2A	2r	1.ff
.	.	2.d	2a	.
1r	1a	.	2d	.
.	.	8c	.	.
.	.	8B	.	.
.	.	2c#	2e	2ee
=80	=80	=80	=80	=80
0r	2r	2d	2a	2ff#
.	2g	2G	2b	2gg
.	1g	1c	2.cc	1ee
.	.	.	4b-	.
=81	=81	=81	=81	=81
0r	1.f	2d	1a	2dd
.	.	2A	.	2cc
.	.	2B-	2.g	2dd
.	2e	2c	.	[2ee
.	.	.	4a	.
=82	=82	=82	=82	=82
0r	2f	2d	1b-	4ee]
.	.	.	.	4dd
.	2g	2G	.	1dd
.	1e	1A	2.a	.
.	.	.	.	2cc#
.	.	.	4g	.
=83	=83	=83	=83	=83
2r	1d	2r	2f	2.dd
1G	.	1B-	2d	.
.	.	.	.	4cc
.	1r	.	2e	2b-
2A	.	2c	[2f	4a
.	.	.	.	4g
=84	=84	=84	=84	=84
4B-	0r	1d	2f]	2f
4A	.	.	.	.
4G	.	.	1g	1b-
4F	.	.	.	.
4E-	.	1e-	.	.
4D	.	.	.	.
2C	.	.	2g	2cc
=85	=85	=85	=85	=85
1G	2r	1d	4b-	1dd
.	.	.	4a	.
.	1B-	.	4g	.
.	.	.	4f	.
1E-	.	2.G	2g	1ee-
.	2c	.	2g	.
.	.	4A	.	.
=86	=86	=86	=86	=86
2BB-	1d	1B-	2f	1dd
2BB-	.	.	2d	.
1C	1e-	[1G	1g	[1cc
=87	=87	=87	=87	=87
1G	1d	1G]	1g	2cc]
.	.	.	.	2b-
1C	2.c	1e-	1r	2a
.	.	.	.	2g
.	4B-	.	.	.
=88	=88	=88	=88	=88
0D	2A	[0d	2r	2f#
.	2G	.	2.d	1g
.	1A	.	.	.
.	.	.	8c	.
.	.	.	8B-	.
.	.	.	2A	2f#
=89	=89	=89	=89	=89
2r	2G	1d]	2B-	1g
2G	2d	.	2b-	.
1B-	1d	2r	1b-	1r
.	.	2f	.	.
=90	=90	=90	=90	=90
1F	1c	1f	1.a	0r
2A	2.c	[1e	.	.
[2c	.	.	2g	.
.	4d	.	.	.
=91	=91	=91	=91	=91
2c]	4e	2e]	2a	0r
.	4f	.	.	.
2B-	2g	2d	2b-	.
1A	2a	2e	1cc	.
.	2A	2e	.	.
=92	=92	=92	=92	=92
2.F	1c	1f	1.a	0r
4G	.	.	.	.
4A	1c	1e	.	.
4B-	.	.	.	.
[2c	.	.	4g	.
.	.	.	4f	.
=93	=93	=93	=93	=93
2c]	1G	1d	1g	0r
2B	.	.	.	.
1c	2r	1c	1g	.
.	[2g	.	.	.
=94	=94	=94	=94	=94
1d	2g]	0r	2b-	1dd
.	2f#	.	2a	.
1G	2g	.	2b-	1dd
.	2d	.	2b-	.
=95	=95	=95	=95	=95
0r	1e-	2r	2g	1.b-
.	.	1g	2g	.
.	1d	.	2r	.
.	.	2f	2d	4a
.	.	.	.	4g
=96	=96	=96	=96	=96
0r	0r	2d	2f	4a
.	.	.	.	4b-
.	.	2e	2g	1cc
.	.	2f	2a	.
.	.	2g	[2g	2b-
=97	=97	=97	=97	=97
1r	0r	1d	4g]	1a
.	.	.	4f	.
.	.	.	4f	.
.	.	.	8g	.
.	.	.	8a	.
2r	.	4G	1b-	1g
.	.	4A	.	.
[2G	.	4B-	.	.
.	.	4c	.	.
=98	=98	=98	=98	=98
2G]	2r	2d	1a	1r
2F	2a	2A	.	.
2E	2g	2c	1r	2r
2D	2f	2d	.	2a
=99	=99	=99	=99	=99
2A	2e	2c	0r	2cc
2B-	2d	2.f	.	2dd
2.F	1a	.	.	2cc
.	.	4e	.	.
.	.	[2d	.	[2ff
4G	.	.	.	.
=100	=100	=100	=100	=100
1A	1a	2d]	1r	2ff]
.	.	2c	.	2.ee
1D	[1a	[1f	2r	.
.	.	.	.	4dd
.	.	.	2d	[2dd
=101	=101	=101	=101	=101
1r	2a]	2f]	2f	2dd]
.	2g	2e	2g	2cc#
2r	2a	1d	4f	1dd
.	.	.	8g	.
.	.	.	8a	.
2G	2g	.	[2b-	.
=102	=102	=102	=102	=102
2B-	2f	1r	2b-]	0r
2c	2e	.	2.a	.
2G	1d	2r	.	.
.	.	.	4g	.
2B-	.	2G	[2g	.
=103	=103	=103	=103	=103
1A	1c	2A	2g]	0r
.	.	2c	2f#	.
1G	2.d	2c	1g	.
.	.	2B	.	.
.	4e	.	.	.
=104	=104	=104	=104	=104
1F	2.f	2c	1a	1r
.	.	2A	.	.
.	4g	.	.	.
[1F	1a	2c	2.f	2r
.	.	2d	.	2a
.	.	.	4g	.
=105	=105	=105	=105	=105
2F]	1A	2c	1a	2cc
2D	.	2f	.	2dd
2A	2c	2e	1a	2cc
4D	[2d	2d	.	[2ff
4E	.	.	.	.
=106	=106	=106	=106	=106
4F	2d]	1a	2r	2ff]
4G	.	.	.	.
2A	2c	.	2A	1ee
2F	1f	1a	2c	.
2D	.	.	2d	[2dd
=107	=107	=107	=107	=107
1A	1e	2a	2e	2dd]
.	.	2e	2.a	2cc#
1D	[1d	1f#	.	1dd
.	.	.	4a	.
.	.	.	2a	.
=108	=108	=108	=108	=108
0G	1d]	0g	0d	0b
.	[1G	.	.	.
=109	=109	=109	=109	=109
0C	2G]	0e-	0g	0cc
.	2G	.	.	.
.	[1c	.	.	.
=110	=110	=110	=110	=110
0G	2c]	0d	0g	0dd
.	4B-	.	.	.
.	4A	.	.	.
.	1B-	.	.	.
=111	=111	=111	=111	=111
0D	1A	0d	2f#	[0dd
.	.	.	2a	.
.	2r	.	1a	.
.	2a	.	.	.
=112	=112	=112	=112	=112
2r	1a	0r	2.d	1dd]
2d	.	.	.	.
.	.	.	4e	.
1d	4d	.	4f	2r
.	4e	.	4g	.
.	4f	.	2a	2dd
.	8e	.	.	.
.	8f	.	.	.
=113	=113	=113	=113	=113
1G	2.g	2r	2b	1dd
.	.	2g	2b	.
.	4f	.	.	.
2.c	4e	1g	2cc	1g
.	4d	.	.	.
.	[2e	.	2g	.
4B-	.	.	.	.
=114	=114	=114	=114	=114
4A	2e]	1c	1.a	1.cc
4G	.	.	.	.
2.F	2f	.	.	.
.	2c	[1f	.	.
4E	.	.	.	.
[2D	4d	.	2f	2b-
.	4e	.	.	.
=115	=115	=115	=115	=115
2D]	4f	2f]	2d	[0a
.	4g	.	.	.
2C#	2a	2e	2e	.
4D	2r	1d	1f	.
4E	.	.	.	.
4F	2A	.	.	.
4G	.	.	.	.
=116	=116	=116	=116	=116
1A	2.c	1r	1e	1a]
.	4c	.	.	.
1D	1d	2r	2.f	2r
.	.	2d	.	2a
.	.	.	4f	.
=117	=117	=117	=117	=117
0r	2c	2e	2g	2.cc
.	2F	2f	2a	.
.	.	.	.	4cc
.	2f	1B-	4d	1dd
.	.	.	4e	.
.	2d	.	4f	.
.	.	.	4d	.
=118	=118	=118	=118	=118
0r	0r	2c	4e	2g
.	.	.	4f	.
.	.	2G	1g	2b-
.	.	1d	.	1a
.	.	.	2f	.
=119	=119	=119	=119	=119
2r	1r	1G	0b-	4g
.	.	.	.	4a
2G	.	.	.	4b-
.	.	.	.	4cc
2.B-	2r	1r	.	2dd
.	2d	.	.	[2ff
4B-	.	.	.	.
=120	=120	=120	=120	=120
1c	2.e	1r	2.g	4ff]
.	.	.	.	4ee
.	.	.	.	2.ee
.	4e	.	4a	.
2G	1g	2r	2b-	.
.	.	.	.	4dd
2B-	.	2d	2g	[2dd
=121	=121	=121	=121	=121
1A	1c	2.f	1a	4dd]
.	.	.	.	4cc
.	.	.	.	1cc
.	.	4f	.	.
1G	2d	1g	1r	.
.	4d	.	.	2b-
.	4e	.	.	.
=122	=122	=122	=122	=122
0r	4f	2d	0r	2dd
.	4g	.	.	.
.	2.a	2f	.	2.cc
.	.	1e-	.	.
.	4g	.	.	4b-
.	[2g	.	.	2g
=123	=123	=123	=123	=123
1r	2g]	1d	1r	1a
.	2f#	.	.	.
1G	2g	2.B-	1d	2g
.	2G	.	.	[2dd
.	.	4c	.	.
=124	=124	=124	=124	=124
2.D	2r	1d	2.f	2dd]
.	2A	.	.	1ff
4D	.	.	4f	.
1C	2.c	2G	2g	.
.	.	2G	2g	2ee-
.	4c	.	.	.
=125	=125	=125	=125	=125
1.G	1d	2.B-	2g	1dd
.	.	.	2.b-	.
.	.	4B-	.	.
.	2G	1d	.	[1dd
.	.	.	4a	.
2G	2B-	.	[2g	.
=126	=126	=126	=126	=126
0D	0A	1.d	2g]	1dd]
.	.	.	4f#	.
.	.	.	4e	.
.	.	.	1f#	1a
.	.	2d	.	.
=127	=127	=127	=127	=127
0G	1G	1d	2.g	2.b
.	.	.	8f	4cc
.	.	.	8e-	.
.	2.g	1B	1d	2dd
.	.	.	.	2dd
.	4f	.	.	.
=128	=128	=128	=128	=128
0C	4e-	2.c	0g	2.ee-
.	4d	.	.	.
.	4c	.	.	.
.	4B	4d	.	4dd
.	1c	1e-	.	1cc
=129	=129	=129	=129	=129
[0G	[0B	[0d	[0g	[0dd
=130	=130	=130	=130	=130
0G]	0B]	0d]	0g]	0dd]
==	==	==	==	==
*-	*-	*-	*-	*-
!!!CDT: 1525/^1526/-1594/2/2
!!!OCY: Italia
!!!AGN: Mass (Parody)
!!!AST: renaissance, vocal
!!!ASW: Motet (unidentified (Pal?))
!!!PWK: Masses, Book 4
!!!RNB: Cadence finals: D
!!!YOR: Le Opere Complete, v. 10, p. 115
!!!YOO: Rome, Italy: Fratelli Scalera
!!!END: 1992//
!!!EED: John Miller
!!!YEC: Copyright 2000, John Miller
!!!YEN: United States of America
!!!YEM: Rights to all derivative electronic formats reserved.
!!!YEM: Refer to licensing agreement for further details.
!!!YEM: This file must be accompanied by the licensing agreement.
!!!YEM: A copy of the licensing agreement may be found at http://www.music-cog.ohio-state.edu/HumdrumDatabases/Palestrina/license.txt
!!!EMD: converted to Humdrum by Bret Aarden
